X: 43387
T: Wrong Foot Forward
R: slip jig
M: 9/8
K: Eminor
M:7/8
E2GB efg|d2AG FGA|GEBG EFG|FDAF DEF|
E2GB efg|d2AG FGA|G2EF GFD|1 d2AG FGA:|2 d2AG FED||
GAce ~a2g|cGeG gfd|EFGB ~e2d|GAdA efa|
~A2ce a2g|c2eG gfd|EFGB efd|d2AG GAA:|

